icons/svg/facebook-box.svg

﻿<?xml version="1.0" encoding="utf-8"?>
<!DOCTYPE svg PUBLIC "-//W3C//DTD SVG 1.1//EN" "http://www.w3.org/Graphics/SVG/1.1/DTD/svg11.dtd">
<svg xmlns="http://www.w3.org/2000/svg" xmlns:xlink="http://www.w3.org/1999/xlink" version="1.1" baseProfile="full" width="24" height="24" viewBox="0 0 24.00 24.00" enable-background="new 0 0 24.00 24.00" xml:space="preserve">
	<path fill="#000000" fill-opacity="1" stroke-width="0.2" stroke-linejoin="round" d="M 18.9994,3.99807L 18.9994,6.99807L 16.9994,6.99807C 16.4474,6.99807 15.9994,7.44507 15.9994,7.99807L 15.9994,9.99807L 18.9994,9.99807L 18.9994,12.9981L 15.9994,12.9981L 15.9994,19.9981L 12.9994,19.9981L 12.9994,12.9981L 10.9994,12.9981L 10.9994,9.99807L 12.9994,9.99807L 12.9994,7.49807C 12.9994,5.56407 14.5664,3.99807 16.4994,3.99807M 19.9994,1.99807L 3.99939,1.99807C 2.89539,1.99807 2.0094,2.89306 2.0094,3.99807L 1.99939,19.9981C 1.99939,21.1016 2.89539,21.9981 3.99939,21.9981L 19.9994,21.9981C 21.1034,21.9981 21.9994,21.1016 21.9994,19.9981L 21.9994,3.99807C 21.9994,2.89306 21.1034,1.99807 19.9994,1.99807 Z "/>
</svg>

<svg xmlns="http://www.w3.org/2000/svg" version="1.1" baseProfile="full" width="24" height="24" viewBox="0 0 24.00 24.00" xml:space="preserve"><path fill="#000" fill-opacity="1" stroke-width=".2" stroke-linejoin="round" d="M19 3.998v3h-2c-.553 0-1 .447-1 1v2h3v3h-3v7h-3v-7h-2v-3h2v-2.5c0-1.934 1.566-3.5 3.5-3.5m3.5-2H4c-1.105 0-1.99.895-1.99 2l-.01 16c0 1.104.895 2 2 2h16c1.103 0 2-.896 2-2v-16c0-1.105-.897-2-2-2z"/></svg>
